img/insta.svg

<svg width="17" height="18" viewBox="0 0 17 18" fill="none" xmlns="http://www.w3.org/2000/svg">
<path d="M8.5 4.7793C6.125 4.7793 4.23242 6.70899 4.23242 9.04688C4.23242 11.4219 6.125 13.3145 8.5 13.3145C10.8379 13.3145 12.7676 11.4219 12.7676 9.04688C12.7676 6.70899 10.8379 4.7793 8.5 4.7793ZM8.5 11.8301C6.97852 11.8301 5.7168 10.6055 5.7168 9.04688C5.7168 7.52539 6.94141 6.30079 8.5 6.30079C10.0215 6.30079 11.2461 7.52539 11.2461 9.04688C11.2461 10.6055 10.0215 11.8301 8.5 11.8301ZM13.918 4.63086C13.918 4.07422 13.4727 3.62891 12.916 3.62891C12.3594 3.62891 11.9141 4.07422 11.9141 4.63086C11.9141 5.1875 12.3594 5.63282 12.916 5.63282C13.4727 5.63282 13.918 5.1875 13.918 4.63086ZM16.7383 5.63282C16.6641 4.29688 16.3672 3.10938 15.4023 2.14454C14.4375 1.17969 13.25 0.882813 11.9141 0.808594C10.541 0.734375 6.42188 0.734375 5.04883 0.808594C3.71289 0.882813 2.5625 1.17969 1.56055 2.14454C0.595703 3.10938 0.298828 4.29688 0.224609 5.63282C0.150391 7.00586 0.150391 11.125 0.224609 12.4981C0.298828 13.834 0.595703 14.9844 1.56055 15.9864C2.5625 16.9512 3.71289 17.2481 5.04883 17.3223C6.42188 17.3965 10.541 17.3965 11.9141 17.3223C13.25 17.2481 14.4375 16.9512 15.4023 15.9864C16.3672 14.9844 16.6641 13.834 16.7383 12.4981C16.8125 11.125 16.8125 7.00586 16.7383 5.63282ZM14.957 13.9454C14.6973 14.6875 14.1035 15.2442 13.3984 15.5411C12.2852 15.9864 9.6875 15.875 8.5 15.875C7.27539 15.875 4.67773 15.9864 3.60156 15.5411C2.85938 15.2442 2.30273 14.6875 2.00586 13.9454C1.56055 12.8692 1.67188 10.2715 1.67188 9.04688C1.67188 7.85938 1.56055 5.26172 2.00586 4.14844C2.30273 3.44336 2.85938 2.88672 3.60156 2.58985C4.67773 2.14454 7.27539 2.25586 8.5 2.25586C9.6875 2.25586 12.2852 2.14454 13.3984 2.58985C14.1035 2.84961 14.6602 3.44336 14.957 4.14844C15.4023 5.26172 15.291 7.85938 15.291 9.04688C15.291 10.2715 15.4023 12.8692 14.957 13.9454Z" fill="#292F36"/>
</svg>

<svg width="17" height="18" fill="none" xmlns="http://www.w3.org/2000/svg"><path d="M8.5 4.78a4.268 4.268 0 0 0-4.268 4.267A4.245 4.245 0 0 0 8.5 13.315a4.268 4.268 0 0 0 4.268-4.268c0-2.338-1.93-4.268-4.268-4.268Zm0 7.05a2.78 2.78 0 0 1-2.783-2.783C5.717 7.525 6.94 6.3 8.5 6.3a2.74 2.74 0 0 1 2.746 2.746c0 1.558-1.225 2.783-2.746 2.783Zm5.418-7.2a.998.998 0 0 0-1.002-1.001.998.998 0 0 0-1.002 1.002.998.998 0 0 0 1.002 1.002.998.998 0 0 0 1.002-1.002Zm2.82 1.003c-.074-1.336-.37-2.524-1.336-3.488C14.438 1.18 13.25.883 11.914.809 10.541.734 6.422.734 5.05.809c-1.336.074-2.487.37-3.488 1.336C.596 3.109.299 4.297.225 5.633c-.075 1.373-.075 5.492 0 6.865.074 1.336.37 2.486 1.336 3.488 1.002.965 2.152 1.262 3.488 1.336 1.373.075 5.492.075 6.865 0 1.336-.074 2.524-.37 3.488-1.336.965-1.002 1.262-2.152 1.336-3.488.075-1.373.075-5.492 0-6.865Zm-1.781 8.312c-.26.742-.854 1.3-1.559 1.596-1.113.445-3.71.334-4.898.334-1.225 0-3.822.111-4.898-.334a2.814 2.814 0 0 1-1.596-1.596c-.445-1.076-.334-3.674-.334-4.898 0-1.188-.111-3.785.334-4.899A2.862 2.862 0 0 1 3.602 2.59c1.076-.445 3.673-.334 4.898-.334 1.188 0 3.785-.111 4.898.334.706.26 1.262.853 1.559 1.558.445 1.114.334 3.711.334 4.899 0 1.224.111 3.822-.334 4.898Z" fill="#292F36"/></svg>
